assets/ios/swift/Icons.xcassets/chevronUp.imageset/chevronUp.svg

<svg width="24" height="24" viewBox="0 0 24 24" fill="none" xmlns="http://www.w3.org/2000/svg">
<path d="M12 10.775L8.09995 14.675C7.91662 14.8583 7.68328 14.95 7.39995 14.95C7.11662 14.95 6.88328 14.8583 6.69995 14.675C6.51662 14.4916 6.42495 14.2583 6.42495 13.975C6.42495 13.6916 6.51662 13.4583 6.69995 13.275L11.3 8.67495C11.4 8.57495 11.5083 8.50412 11.625 8.46245C11.7416 8.42078 11.8666 8.39995 12 8.39995C12.1333 8.39995 12.2583 8.42078 12.375 8.46245C12.4916 8.50412 12.6 8.57495 12.7 8.67495L17.3 13.275C17.4833 13.4583 17.575 13.6916 17.575 13.975C17.575 14.2583 17.4833 14.4916 17.3 14.675C17.1166 14.8583 16.8833 14.95 16.6 14.95C16.3166 14.95 16.0833 14.8583 15.9 14.675L12 10.775Z" fill="black"/>
</svg>

<svg xmlns="http://www.w3.org/2000/svg" width="24" height="24" fill="black" viewBox="0 0 24 24">
  <path d="m12 10.775-3.9 3.9a.948.948 0 0 1-.7.275.948.948 0 0 1-.7-.275.948.948 0 0 1-.275-.7.95.95 0 0 1 .275-.7l4.6-4.6c.1-.1.208-.17.325-.213.117-.041.242-.062.375-.062s.258.02.375.062a.878.878 0 0 1 .325.213l4.6 4.6a.948.948 0 0 1 .275.7.949.949 0 0 1-.275.7.949.949 0 0 1-.7.275.948.948 0 0 1-.7-.275l-3.9-3.9Z"/>
</svg>
